X:11
T:Kitrákotty mese
O: Felsőbodogfalva (Udvarhely), Fülöp Istvánné, 1903
M:2/4
L:1/4
Q: "Tempo guisto"
K:G
G/A/B/G/ | A/A/A/G/ | B D | G2 | 
G/A/B/G/ | A/A/A/G/ | B D | G/ z/ z | 
G/A/B/G/ | A/F/ (G/D/) | 
d/<d/e/B/ | c/A/B/G/ | A/A/G/F/ | A D | G/z/z | 

